X:309
T:Paddy Fahy's Jig
R:jig
C:Paddy Fahy
H:See also #208
D:Martin Hayes
Z:id:hn-jig-309
M:6/8
K:Gdor
DGA _B2c|c_Bc d2g|g=fd _Bcd|cAG =FDC|
DGA _B2c|c_Bc d2g|g=fd _Bcd|1 cA=F G2F:|2 cA=F G_Bd||
|:g3 =fga|g=fd _Bcd|=BcA =f3|ag=f de=f|
g2a _bag|=fdg =fdc|A_BG Adc|1 AG=F G_Bd:|2 AG=F G2F||
